static/package.svg

<?xml version="1.0" encoding="utf-8"?><!-- Uploaded to: SVG Repo, www.svgrepo.com, Generator: SVG Repo Mixer Tools -->
<svg width="800px" height="800px" viewBox="0 0 24 24" fill="none" xmlns="http://www.w3.org/2000/svg">
<path d="M5.5 8.80835C5.5 8.80835 5 10.6111 5 13.5C5 16.3889 5.38889 18.9167 5.77778 19.2778C6.16667 19.6389 8.88889 20 12 20C15.1111 20 17.8333 19.6389 18.2222 19.2778C18.6111 18.9167 19 16.3889 19 13.5C19 10.6111 18.5 8.80835 18.5 8.80835M5.5 8.80835C6.65798 8.91328 9.19021 9 12 9C14.8098 9 17.342 8.91328 18.5 8.80835M5.5 8.80835C5.19265 8.7805 4.98211 8.75135 4.88889 8.72222C4.44444 8.58333 4 7.61111 4 6.5C4 5.38889 4.44444 4.41667 4.88889 4.27778C5.33333 4.13889 8.44444 4 12 4C15.5556 4 18.6667 4.13889 19.1111 4.27778C19.5556 4.41667 20 5.38889 20 6.5C20 7.61111 19.5556 8.58333 19.1111 8.72222C19.0179 8.75135 18.8074 8.7805 18.5 8.80835M10 13C10 13 10.5 12.5 12 12.5C13.5 12.5 14 13 14 13" stroke="#000000" stroke-width="1.5" stroke-linecap="round" stroke-linejoin="round"/>
</svg>

<svg xmlns="http://www.w3.org/2000/svg" width="800" height="800" fill="none" viewBox="0 0 24 24"><path stroke="currentColor" stroke-linecap="round" stroke-linejoin="round" stroke-width="1.5" d="M5.5 8.8S5 10.62 5 13.5s.39 5.42.78 5.78S8.88 20 12 20s5.83-.36 6.22-.72c.4-.36.78-2.9.78-5.78s-.5-4.7-.5-4.7m-13 0c1.16.11 3.69.2 6.5.2s5.34-.09 6.5-.2m-13 0q-.46-.03-.61-.08C4.44 8.58 4 7.62 4 6.5c0-1.11.44-2.08.89-2.22C5.33 4.14 8.44 4 12 4s6.67.14 7.11.28.89 1.1.89 2.22c0 1.11-.44 2.08-.89 2.22q-.15.04-.61.09M10 13s.5-.5 2-.5 2 .5 2 .5"/></svg>
